arrow-u-left-bottom-bold.svg

<svg fill="currentColor" viewBox="0 0 24 24"><path d="M21 10.5c0 4.14-3.36 7.5-7.5 7.5H11v4l-7-6 7-6v4h2.5c1.93 0 3.5-1.57 3.5-3.5S15.43 7 13.5 7H6V3h7.5c4.14 0 7.5 3.36 7.5 7.5"/></svg>

<svg  viewBox="0 0 24 24" fill="currentColor"><path  d="M21 10.5C21 14.64 17.64 18 13.5 18H11V22L4 16L11 10V14H13.5C15.43 14 17 12.43 17 10.5S15.43 7 13.5 7H6V3H13.5C17.64 3 21 6.36 21 10.5Z"/></svg>
